X:1
T:Away In a Manger
M:3/4
L:1/4
K:F
 c| c3/2 B/2 A| A3/2 G/2 F| F E D| C2 C| C3/2 D/2 C| C G E| D C F|\
 A2 c| c3/2 B/2 A| A3/2- G/2 F| F E D| C2 C| B3/2 A/2 G| A G F| G D E|\
 F2||
